X:1
T:Birkdale, 10.10.10.6
T:Birkdale, 10.10.10.6
T:Joseph Barnby, 1883
T:Public Domain Courtesy of the Cyber Hymnal™
C:Joseph Barnby, 1883
Z:Public Domain
Z:Courtesy of the Cyber Hymnal™
%%score ( 1 2 ) ( 3 4 )
L:1/8
Q:1/4=112
M:4/4
K:D
V:1 treble 
V:2 treble 
V:3 bass 
V:4 bass 
V:1
 [DF]4 [FA]2 [Fd]2 | [Gc]6 [CB]2 | [DA]2 [DF]2 D2 [CE]2 | ([CE]4 [DF]4) | [DG]4 [^DG]2 [DF]2 | %5
 [EB]6 [FA]2 | [B,A]2 [B,G]2 B,2 [B,F]2 | [CE]8 | [=CF]4 [CE]2 [CD]2 | [B,B]6 [^DB]2 | %10
 [EB]2 [FB]2 [^Ge]2 [Gd]2 | (d4 c4) | [Fd]4 [DF]2 [=CA]2 | [B,D]6 [DE]2 | [DF]8 |] %15
V:2
 x8 | x8 | x4 D2 x2 | x8 | x8 | x8 | x4 B,2 x2 | x8 | x8 | x8 | x8 | G8 | x8 | x8 | x8 |] %15
V:3
 [D,A,]4 [D,A,]2 [D,A,]2 | [E,A,]6 [E,G,]2 | [F,A,]2 [F,A,]2 [G,B,]2 [G,_B,]2 | ([D,_B,]4 A,4) | %4
 [B,,G,]4 B,2 [A,B,]2 | [G,B,]6 [^D,B,]2 | [E,B,]2 [E,B,]2 [G,,G,]2 [G,,G,]2 | [A,,G,]8 | %8
 [D,A,]4 [D,G,]2 [D,F,]2 | G,6 [F,A,]2 | [E,^G,]2 [E,A,]2 [E,B,]2 [E,E]2 | E8 | %12
 [B,,D]4 [A,,=C]2 [F,,A,]2 | (A,4 G,2) [G,,B,]2 | [D,A,]8 |] %15
V:4
 x8 | x8 | x8 | x4 (D,2 C,2) | x4 B,2 x2 | x8 | x8 | x8 | x8 | G,6 x2 | x8 | (A,4 A,,4) | x8 | %13
 G,,6 x2 | x8 |] %15

